icons/clinic.svg

<?xml version="1.0" encoding="UTF-8"?><svg id="uuid-c66b5093-d45c-4137-b068-8b62eb631816" xmlns="http://www.w3.org/2000/svg" viewBox="0 0 50 50"><polygon points="23.32 13 25.81 13 25.81 11.19 27.65 11.19 27.65 8.7 25.81 8.7 25.81 6.86 23.31 6.86 23.32 8.7 21.53 8.7 21.52 11.19 23.32 11.19 23.32 13" fill="none"/><path d="M47.6,10.76H31.05V4.52c0-.28-.22-.5-.5-.5h-12c-.28,0-.5,.22-.5,.5v6.24H1.65c-.28,0-.5,.22-.5,.5v7.97c0,.28,.22,.5,.5,.5h3.58v25c0,.28,.22,.5,.5,.5H43.73c.28,0,.5-.22,.5-.5V19.73h3.37c.28,0,.5-.22,.5-.5v-7.97c0-.28-.22-.5-.5-.5ZM19.04,5.02h11V14.96h-11V5.02Zm14.94,39.22h-8.8l-.04-10.55h8.84v10.55Zm-9.84-10.55l.04,10.55H15.13v-10.55h9.01Zm19.09,10.55h-8.25v-11.05c0-.28-.22-.5-.5-.5H14.63c-.28,0-.5,.22-.5,.5v11.05H6.23V19.73H43.23v24.5Zm3.87-25.5H2.15v-6.97h15.89v3.7c0,.28,.22,.5,.5,.5h12c.28,0,.5-.22,.5-.5v-3.7h16.05v6.97Z"/><polygon points="25.81 6.86 23.31 6.86 23.32 8.7 21.53 8.7 21.52 11.19 23.32 11.19 23.32 13 25.81 13 25.81 11.19 27.65 11.19 27.65 8.7 25.81 8.7 25.81 6.86"/></svg>

<svg id="a007c406-c42f-4d23-b533-e33f3bff7d27" data-name="ICONS" xmlns="http://www.w3.org/2000/svg" viewBox="0 0 50 50"><polygon points="23.32 12.99 25.81 12.99 25.81 11.19 27.65 11.19 27.65 8.7 25.81 8.7 25.81 6.86 23.31 6.86 23.32 8.71 21.53 8.7 21.52 11.19 23.32 11.19 23.32 12.99" fill="none"/><path d="M47.6,10.76H31.05V4.52a.5.5,0,0,0-.5-.5h-12a.5.5,0,0,0-.5.5v6.24H1.65a.5.5,0,0,0-.5.5v8a.5.5,0,0,0,.5.5H5.23v25a.5.5,0,0,0,.5.5h38a.5.5,0,0,0,.5-.5v-25H47.6a.5.5,0,0,0,.5-.5v-8A.5.5,0,0,0,47.6,10.76ZM19,5h11V15H19ZM34,44.23h-8.8l0-10.55H34ZM24.14,33.68l0,10.55h-9V33.68ZM43.23,44.23H35v-11a.5.5,0,0,0-.5-.5H14.63a.5.5,0,0,0-.5.5v11H6.23V19.73h37Zm3.87-25.5H2.15v-7H18v3.7a.5.5,0,0,0,.5.5h12a.5.5,0,0,0,.5-.5v-3.7H47.1Z"/><polygon points="25.81 6.86 23.31 6.86 23.32 8.71 21.53 8.7 21.52 11.19 23.32 11.19 23.32 12.99 25.81 12.99 25.81 11.19 27.65 11.19 27.65 8.7 25.81 8.7 25.81 6.86"/></svg>
